app/dist/common/images/hansard-global-plc.svg

<svg height="18" viewBox="0 0 18 18" width="18" xmlns="http://www.w3.org/2000/svg"><path d="m0 0h18v18h-18z" fill="#f0f3fa"/><path d="m9 14a5 5 0 1 0 0-10 5 5 0 0 0 0 10zm-.5-7v-1h-2.5v6h2.5v-1h1v1h2.5v-6h-2.5v1zm0 0v1h1v-1h1.5v4h-1.5v-1h-1v1h-1.5v-4z" fill="#015486" fill-rule="evenodd"/></svg>

<!-- by TradingView --><svg width="18" height="18" viewBox="0 0 18 18" xmlns="http://www.w3.org/2000/svg"><path fill="#F0F3FA" d="M0 0h18v18H0z"/><path fill-rule="evenodd" d="M9 14A5 5 0 1 0 9 4a5 5 0 0 0 0 10Zm-.5-7V6H6v6h2.5v-1h1v1H12V6H9.5v1h-1Zm0 0v1h1V7H11v4H9.5v-1h-1v1H7V7h1.5Z" fill="#015486"/></svg>
